!!! OTL: Berkowitz203
!!! Chapter: 1
!!! Section: II
!!! Page: 46
!!! Mode: 
!!! Encoder: DJB
**kern
*staff1
*I"Piano
=1-
*clefG2
*k[f#]
*G:
*M3/4
4d/
4g/
4f#/
=2
4e/
4a/
4g/
=3
4f#/
4b\
4a/
=4
8a/L
8g/J
8f#/L
8e/J
4d/
=5
4d/
4g/
4f#/
=6
4e/
4a/
4g/
=7
4f#/
4b\
4a/
=8
2g/
4dd\
=9
4ee\
4b\
4cc\
=10
2dd\
8a/L
8b/J
=11
4cc\
4g/
4a/
=12
!!linebreak:original
2b\
4d/
=13
4e/
4a/
4g/
=14
4f#/
4b\
4a/
=15
4g/
4cc\
4cc\
=16
4cc\
4r
4ee\
=17
4.b\
8a/
4g/
=18
4a/
4e/
4f#/
=19
[2.g/
=20
4g/]
2r
==
*-
